packages/dnb-eufemia/assets/icons/animal_print.svg

<svg width="16" height="16" viewBox="0 0 16 16" fill="none" xmlns="http://www.w3.org/2000/svg">
<path d="M10.3333 9.82791C10.3333 8.51128 9.36757 7.21456 8 7.21456C6.63243 7.21456 5.66667 8.51128 5.66667 9.82791C4.57261 9.82791 3.8 10.8653 3.8 11.9186C3.8 13.5459 5.44629 14.5352 6.84267 13.6932C7.55741 13.277 8.44197 13.277 9.15671 13.6932C10.5107 14.509 12.2 13.6024 12.2 11.9186C12.2 10.8653 11.4274 9.82791 10.3333 9.82791Z" stroke="black" stroke-width="1.5" stroke-linecap="round" stroke-linejoin="round"/>
<path d="M2.4 9.26877C3.1732 9.26877 3.8 8.49056 3.8 7.53059C3.8 6.57062 3.1732 5.7924 2.4 5.7924C1.6268 5.7924 1 6.57062 1 7.53059C1 8.49056 1.6268 9.26877 2.4 9.26877Z" stroke="black" stroke-width="1.5" stroke-linecap="round" stroke-linejoin="round"/>
<path d="M5.66667 5.47637C6.43987 5.47637 7.06667 4.69816 7.06667 3.73819C7.06667 2.77821 6.43987 2 5.66667 2C4.89347 2 4.26667 2.77821 4.26667 3.73819C4.26667 4.69816 4.89347 5.47637 5.66667 5.47637Z" stroke="black" stroke-width="1.5" stroke-linecap="round" stroke-linejoin="round"/>
<path d="M10.3333 5.47637C11.1065 5.47637 11.7333 4.69816 11.7333 3.73819C11.7333 2.77821 11.1065 2 10.3333 2C9.56013 2 8.93333 2.77821 8.93333 3.73819C8.93333 4.69816 9.56013 5.47637 10.3333 5.47637Z" stroke="black" stroke-width="1.5" stroke-linecap="round" stroke-linejoin="round"/>
<path d="M13.6 9.26877C14.3732 9.26877 15 8.49056 15 7.53059C15 6.57062 14.3732 5.7924 13.6 5.7924C12.8268 5.7924 12.2 6.57062 12.2 7.53059C12.2 8.49056 12.8268 9.26877 13.6 9.26877Z" stroke="black" stroke-width="1.5" stroke-linecap="round" stroke-linejoin="round"/>
</svg>

<svg width="16" height="16" viewBox="0 0 16 16" fill="none" xmlns="http://www.w3.org/2000/svg"><path d="M10.333 9.828c0-1.317-.965-2.613-2.333-2.613-1.368 0-2.333 1.296-2.333 2.613-1.094 0-1.867 1.037-1.867 2.09 0 1.628 1.646 2.617 3.043 1.775a2.3 2.3 0 0 1 2.314 0c1.354.816 3.043-.09 3.043-1.774 0-1.054-.773-2.091-1.867-2.091ZM2.4 9.269c.773 0 1.4-.778 1.4-1.738s-.627-1.739-1.4-1.739c-.773 0-1.4.779-1.4 1.739 0 .96.627 1.738 1.4 1.738Zm3.267-3.793c.773 0 1.4-.778 1.4-1.738S6.44 2 5.667 2c-.774 0-1.4.778-1.4 1.738s.626 1.738 1.4 1.738Zm4.666 0c.774 0 1.4-.778 1.4-1.738S11.106 2 10.333 2c-.773 0-1.4.778-1.4 1.738s.627 1.738 1.4 1.738ZM13.6 9.269c.773 0 1.4-.778 1.4-1.738s-.627-1.739-1.4-1.739c-.773 0-1.4.779-1.4 1.739 0 .96.627 1.738 1.4 1.738Z" stroke="#000" stroke-width="1.5" stroke-linecap="round" stroke-linejoin="round"/></svg>
